docs/assets/images/shopware.svg

<svg width="50" height="50" viewBox="0 0 50 50" fill="none" xmlns="http://www.w3.org/2000/svg">
<g clip-path="url(#clip0_913_28238)">
<path d="M36.6068 40.0769C34.9316 38.8205 32.4487 37.8632 29.8461 36.8461C26.735 35.6496 23.1752 34.2735 20.5427 32.1496C17.5512 29.7564 16.0854 26.735 16.0854 22.9359C16.0256 19.6154 17.5512 16.4743 20.1837 14.4701C23.2051 12.1068 27.7521 10.8504 33.376 10.8504C34.8418 10.8504 36.3376 10.9402 37.7735 11.1196C37.923 11.1496 38.0726 11.0299 38.0726 10.8803C38.0726 10.7906 38.0427 10.7008 37.9829 10.641C30.0555 3.52135 17.8803 4.17947 10.7606 12.0769C3.64098 19.9743 4.2991 32.1795 12.1965 39.2991C15.7264 42.4701 20.3333 44.235 25.0897 44.235C29.2179 44.2649 33.2564 42.9188 36.5769 40.4658C36.6367 40.406 36.6965 40.3461 36.6965 40.2564C36.7264 40.2265 36.6666 40.1367 36.6068 40.0769Z" fill="#189EFF"/>
<path d="M44.3549 23.235C44.3549 23.1752 44.325 23.0854 44.2651 23.0555C40.2267 19.7051 36.9959 18.3589 33.0173 18.3589C30.9233 18.3589 29.278 18.7778 28.201 19.6154C27.2737 20.3034 26.7651 21.3803 26.7651 22.5171C26.7651 25.8376 30.8036 27.3333 35.5002 29.0983C37.9233 29.9957 40.4062 30.9231 42.7096 32.2094C42.7395 32.2393 42.7993 32.2393 42.8292 32.2393C42.8591 32.2393 42.8891 32.2393 42.919 32.2094C43.0087 32.1795 43.0686 32.1196 43.0985 32.0598C43.9959 29.8162 44.4446 27.4231 44.4446 25C44.4147 24.4316 44.4147 23.8333 44.3549 23.235Z" fill="#189EFF"/>
</g>
<defs>
<clipPath id="clip0_913_28238">
<rect width="38.8889" height="38.8889" fill="white" transform="translate(5.55566 5.55554)"/>
</clipPath>
</defs>
</svg>

<svg xmlns="http://www.w3.org/2000/svg" fill="none" viewBox="0 0 50 50"><g fill="#189EFF" clip-path="url(#a)"><path d="M36.607 40.077c-1.675-1.256-4.158-2.214-6.76-3.23-3.112-1.197-6.672-2.574-9.304-4.697-2.992-2.394-4.458-5.415-4.458-9.214a10.402 10.402 0 0 1 4.099-8.466c3.021-2.363 7.568-3.62 13.192-3.62 1.466 0 2.962.09 4.398.27.149.03.299-.09.299-.24a.34.34 0 0 0-.09-.239c-7.927-7.12-20.103-6.462-27.222 1.436-7.12 7.897-6.462 20.102 1.436 27.222a19.324 19.324 0 0 0 12.893 4.936c4.128.03 8.166-1.316 11.487-3.77.06-.059.12-.119.12-.209.03-.03-.03-.12-.09-.18z"/><path d="M44.355 23.235c0-.06-.03-.15-.09-.18-4.038-3.35-7.27-4.696-11.248-4.696-2.094 0-3.739.419-4.816 1.256-.927.688-1.436 1.765-1.436 2.902 0 3.32 4.039 4.816 8.735 6.581 2.423.898 4.906 1.825 7.21 3.111.03.03.09.03.12.03s.06 0 .089-.03c.09-.03.15-.09.18-.15A18.986 18.986 0 0 0 44.445 25c-.03-.568-.03-1.167-.09-1.765z"/></g><defs><clipPath id="a"><path fill="#fff" d="M0 0H38.889V38.889H0z" transform="translate(5.556 5.556)"/></clipPath></defs></svg>
